mimes/scalable/application-vnd.ms-powerpoint.svg

<?xml version="1.0" encoding="UTF-8" standalone="no"?>
<svg
   xmlns:dc="http://purl.org/dc/elements/1.1/"
   xmlns:cc="http://creativecommons.org/ns#"
   xmlns:rdf="http://www.w3.org/1999/02/22-rdf-syntax-ns#"
   xmlns:svg="http://www.w3.org/2000/svg"
   xmlns="http://www.w3.org/2000/svg"
   xmlns:sodipodi="http://sodipodi.sourceforge.net/DTD/sodipodi-0.dtd"
   xmlns:inkscape="http://www.inkscape.org/namespaces/inkscape"
   width="48"
   height="48"
   viewBox="0 0 12.7 12.7"
   version="1.1"
   id="svg4"
   sodipodi:docname="application-vnd.ms-powerpoint.svg"
   inkscape:version="0.92.3 (2405546, 2018-03-11)">
  <metadata
     id="metadata10">
    <rdf:RDF>
      <cc:Work
         rdf:about="">
        <dc:format>image/svg+xml</dc:format>
        <dc:type
           rdf:resource="http://purl.org/dc/dcmitype/StillImage" />
        <dc:title></dc:title>
      </cc:Work>
    </rdf:RDF>
  </metadata>
  <defs
     id="defs8" />
  <sodipodi:namedview
     pagecolor="#ffffff"
     bordercolor="#666666"
     borderopacity="1"
     objecttolerance="10"
     gridtolerance="10"
     guidetolerance="10"
     inkscape:pageopacity="0"
     inkscape:pageshadow="2"
     inkscape:window-width="1366"
     inkscape:window-height="715"
     id="namedview6"
     showgrid="false"
     showguides="true"
     inkscape:guide-bbox="true"
     inkscape:snap-global="true"
     inkscape:zoom="3.8817216"
     inkscape:cx="24"
     inkscape:cy="24"
     inkscape:window-x="0"
     inkscape:window-y="27"
     inkscape:window-maximized="1"
     inkscape:current-layer="svg4" />
  <path
     inkscape:connector-curvature="0"
     style="opacity:1;fill:#aa4400;fill-opacity:1;fill-rule:nonzero;stroke:none;stroke-width:0.50711805;stroke-linecap:round;stroke-linejoin:bevel;stroke-miterlimit:4;stroke-dasharray:none;stroke-opacity:1"
     d="m 7.3492433,0.0566603 c -0.040983,0 -0.078161,0.0127642 -0.1049033,0.0330729 C 7.218411,0.1094229 7.202933,0.1367362 7.201965,0.1667311 7.3445127,0.2235372 7.4736634,0.30302596 7.5802366,0.40909358 7.76971,0.59766786 7.8931916,0.85276088 7.9104491,1.1392812 h 0.00672 v 0.068213 0.1441772 0.1369425 0.1927531 c 0,0.2812905 0.2266883,0.5079794 0.5079795,0.5079794 h 0.1183391 l -5.291e-4,0.00568 h 1.6924064 c 0.329951,0 0.613684,0.1491999 0.819072,0.3731038 V 1.141865 0.56463964 c 0,-0.14064565 -0.05654,-0.26789289 -0.148312,-0.35966798 C 10.814345,0.11319656 10.687101,0.0566603 10.546455,0.0566603 H 9.0462851 7.7864139 Z"
     id="path965" />
  <path
     style="opacity:1;fill:#333333;fill-opacity:1;fill-rule:nonzero;stroke:none;stroke-width:0.50711805;stroke-linecap:round;stroke-linejoin:bevel;stroke-miterlimit:4;stroke-dasharray:none;stroke-opacity:1"
     d="m 2.9460732,0.55206094 c -0.6285519,0 -1.134298,0.50626306 -1.134298,1.13481446 v 9.9012056 c 0,0.628551 0.5057461,1.134814 1.134298,1.134814 h 4.2855261 2.522327 c 0.6285527,0 1.1342987,-0.506263 1.1342987,-1.134814 V 3.6728008 h -0.01292 C 10.810197,3.1070068 10.337709,2.6687276 9.7539263,2.6687276 h -1.692403 v 0 l -0.11781,-0.00568 C 7.6627483,2.6495013 7.4357343,2.4363589 7.4357343,2.1550682 V 1.9623107 1.8253682 1.6811909 1.612978 h -0.0067 C 7.3941823,1.0346118 6.9321933,0.5804805 6.3510473,0.55464473 l -5.29e-4,-0.002585 h -0.02015 z"
     id="path833"
     inkscape:connector-curvature="0" />
  <path
     style="opacity:1;fill:#cccccc;fill-opacity:1;fill-rule:nonzero;stroke:none;stroke-width:0.50711805;stroke-linecap:round;stroke-linejoin:bevel;stroke-miterlimit:4;stroke-dasharray:none;stroke-opacity:1"
     d="m 6.4269983,1.0791605 c 0.263277,0.019482 0.470254,0.2359637 0.470255,0.504362 v 0.2563151 0.125057 0.092501 c 0,0.5757933 0.427721,1.0388807 0.982369,1.1136271 v 0 l 1.962134,0.026872 c 0.2812647,0.00385 0.5079787,0.2266886 0.5079797,0.5079793 V 5.7894678 11.68575 c 0,0.281291 -0.226688,0.50798 -0.5079797,0.50798 H 7.2315993 2.8582236 c -0.281291,0 -0.50798,-0.226689 -0.50798,-0.50798 V 1.5892069 c 0,-0.2812907 0.226689,-0.5079794 0.50798,-0.5079794 h 3.5692907 z"
     id="path901-5"
     inkscape:connector-curvature="0" />
  <path
     inkscape:connector-curvature="0"
     style="color:#000000;opacity:1;color-interpolation:sRGB;color-interpolation-filters:linearRGB;fill:#aa4400;fill-opacity:1;stroke-width:0.26458332;color-rendering:auto;image-rendering:auto;shape-rendering:auto;text-rendering:auto"
     d="m 3.7041667,5.5562501 c -0.1465792,0 -0.2645834,0.1180042 -0.2645834,0.2645834 v 5.2916675 c 0,0.146579 0.1180042,0.264583 0.2645834,0.264583 h 5.2916666 c 0.146579,0 0.264583,-0.118004 0.264583,-0.264583 V 5.8208335 c 0,-0.1465792 -0.118004,-0.2645834 -0.264583,-0.2645834 z m 0,0.2645834 H 8.9958333 V 11.112501 H 3.7041667 Z m 3.1749996,0.5291666 v 1.0583333 h 1.058334 c 0,-0.5844645 -0.473869,-1.0583333 -1.058334,-1.0583333 M 6.3500003,6.6145834 A 1.3229167,1.3229167 0 0 0 5.0270833,7.9375001 1.3229167,1.3229167 0 0 0 6.3500003,9.2604169 1.3229167,1.3229167 0 0 0 7.6729163,7.9375001 1.3229167,1.3229167 0 0 0 7.6460453,7.6729168 H 6.6146993 V 6.6423647 a 1.3229167,1.3229167 0 0 0 -0.264583,-0.027905 m 0,0.2645834 V 7.937376 h 1.058333 A 1.0583333,1.0583333 0 0 1 6.3501163,8.9957094 1.0583333,1.0583333 0 0 1 5.2917833,7.937376 1.0583333,1.0583333 0 0 1 6.3501163,6.8790427 M 4.2334498,9.7894594 V 10.054043 H 8.4667833 V 9.7894594 Z m 0,0.5291666 v 0.264584 h 4.2333335 v -0.264584 z"
     id="path29" />
  <path
     inkscape:connector-curvature="0"
     style="line-height:normal;text-indent:0;text-align:start;text-decoration:none;text-decoration-line:none;text-transform:none;stroke-width:0.26458332;marker:none;fill:#aa4400;fill-opacity:1"
     d="m 4.3188614,1.8997573 c -0.1527748,3.608e-4 -0.3058505,0.00156 -0.4586251,4.683e-4 V 4.5467185 H 4.4497292 V 3.7055928 c 0.00926,-0.029713 -0.020009,-0.09624 0.016681,-0.1000893 0.2940013,0.00686 0.6065786,-0.0162 0.8549879,-0.1820874 C 5.5619888,3.2724457 5.668512,2.9908612 5.6646626,2.7256107 5.6646626,2.5688661 5.6342407,2.407383 5.5488316,2.2714496 5.3901624,2.0191909 5.0699293,1.9221276 4.7772512,1.9049254 4.6244765,1.9001134 4.471636,1.8993966 4.3188614,1.8997573 Z m 0.1308678,0.4602696 h 0.130398 c 0.1690147,-0.00469 0.3784427,0.030056 0.4513415,0.1961845 0.056298,0.1455569 0.055283,0.328774 -0.04793,0.4558055 C 4.8488082,3.1533638 4.6345025,3.1469074 4.4497292,3.1457044 Z"
     id="path853" />
</svg>

<?xml version="1.0" encoding="UTF-8" standalone="no"?><svg xmlns:dc="http://purl.org/dc/elements/1.1/" xmlns:cc="http://creativecommons.org/ns#" xmlns:rdf="http://www.w3.org/1999/02/22-rdf-syntax-ns#" xmlns="http://www.w3.org/2000/svg" width="48" height="48" viewBox="0 0 12.7 12.7"><metadata><rdf:RDF><cc:Work><dc:format>image/svg+xml</dc:format><dc:type rdf:resource="http://purl.org/dc/dcmitype/StillImage"/><dc:title/></cc:Work></rdf:RDF></metadata><path d="M7.35.06a.17.17 0 0 0-.1.03.1.1 0 0 0-.05.08 1.12 1.12 0 0 1 .71.97v.55c0 .27.23.5.52.5h1.81c.33 0 .6.15.81.38V.56a.5.5 0 0 0-.5-.5H7.79z" fill="#a40"/><path d="M2.95.55c-.63 0-1.14.5-1.14 1.14v9.9c0 .63.5 1.13 1.14 1.13H9.75c.63 0 1.14-.5 1.14-1.13V3.67h-.01c-.07-.56-.54-1-1.13-1H7.94a.52.52 0 0 1-.5-.51V1.6h-.01A1.12 1.12 0 0 0 6.35.55h-.02z" fill="#333"/><path d="M6.43 1.08a.5.5 0 0 1 .47.5v.48c0 .57.42 1.04.98 1.11l1.96.03c.28 0 .51.22.51.5v7.99a.5.5 0 0 1-.5.5H2.85a.5.5 0 0 1-.51-.5V1.59c0-.28.23-.5.5-.5h3.58z" fill="#ccc"/><path d="M3.7 5.56a.26.26 0 0 0-.26.26v5.3c0 .14.12.26.26.26H9c.14 0 .26-.12.26-.27V5.82A.26.26 0 0 0 9 5.56zm0 .26H9v5.3H3.7zm3.18.53v1.06h1.06c0-.59-.48-1.06-1.06-1.06m-.53.26a1.32 1.32 0 0 0-1.32 1.33 1.32 1.32 0 0 0 1.32 1.32 1.32 1.32 0 0 0 1.32-1.32 1.32 1.32 0 0 0-.02-.27H6.6V6.64a1.32 1.32 0 0 0-.26-.03m0 .27v1.06h1.06A1.06 1.06 0 0 1 6.35 9a1.06 1.06 0 0 1-1.06-1.06 1.06 1.06 0 0 1 1.06-1.06m-2.12 2.9v.27h4.24V9.8zm0 .54v.26h4.24v-.26z" color="#000" fill="#a40"/><path style="line-height:normal;text-indent:0;text-align:start;text-decoration-line:none;text-transform:none;marker:none" d="M4.32 1.9h-.46v2.65h.59V3.7c0-.03-.02-.1.02-.1.29 0 .6-.02.85-.19a.8.8 0 0 0 .34-.7.85.85 0 0 0-.11-.45c-.16-.25-.48-.35-.77-.37h-.46zm.13.46h.13c.17 0 .38.03.45.2.06.14.06.32-.05.45-.13.14-.35.14-.53.14z" fill="#a40"/></svg>
